packages/icons/src/SVG/call.svg

<svg width="12" height="12" viewBox="0 0 12 12" >
<path d="M0.927511 2.36719C0.943134 2.59375 1.01344 2.89844 1.13842 3.28125C1.2634 3.66406 1.44306 4.08984 1.67739 4.55859C1.91954 5.02734 2.21637 5.51563 2.56788 6.02344C2.91939 6.53125 3.32948 7.01953 3.79816 7.48828C4.25902 7.95703 4.7316 8.39844 5.2159 8.8125C5.69239 9.22656 6.13763 9.58984 6.55163 9.90234C6.97344 10.2148 7.34448 10.4648 7.66474 10.6523C7.985 10.8398 8.21544 10.9453 8.35604 10.9688C8.63724 11 8.82471 11.0117 8.91845 11.0039C9.02 10.9961 9.07077 10.9922 9.07077 10.9922C9.10983 11 9.227 10.9609 9.42228 10.875C9.60975 10.7891 9.81675 10.6758 10.0433 10.5352C10.2698 10.3867 10.4846 10.2148 10.6877 10.0195C10.8908 9.82422 11.0236 9.62109 11.0861 9.41016C10.8361 9.29297 10.4651 9.10547 9.97297 8.84766C9.48867 8.58984 9.12154 8.40234 8.87158 8.28516L7.55929 9.29297L6.24699 8.36719C6.1142 8.29688 5.84081 8.07812 5.42681 7.71094C5.02062 7.34375 4.64959 6.97266 4.3137 6.59766C3.97 6.22266 3.64974 5.83594 3.35291 5.4375C3.0639 5.03906 2.88424 4.77344 2.81394 4.64063L2.55616 4.125L3.30605 3.17578L2.32182 1.03125C1.96251 1.16406 1.63443 1.35156 1.3376 1.59375C1.04859 1.83594 0.911889 2.09375 0.927511 2.36719ZM8.59038 12C8.28574 12 7.91861 11.8906 7.48899 11.6719C7.06718 11.4453 6.61022 11.1523 6.11811 10.793C5.626 10.4258 5.11826 10.0117 4.59491 9.55078C4.07936 9.08984 3.57163 8.62109 3.07171 8.14453C2.5796 7.67578 2.14607 7.17188 1.77113 6.63281C1.39619 6.10156 1.07983 5.57812 0.822059 5.0625C0.572098 4.54688 0.376816 4.05859 0.236213 3.59766C0.103421 3.14453 0.0253085 2.76172 0.00187471 2.44922C-0.0137479 2.16797 0.0682706 1.89063 0.24793 1.61719C0.419778 1.33594 0.6424 1.08594 0.915794 0.867188C1.197 0.640625 1.50164 0.449219 1.82971 0.292969C2.15779 0.136719 2.47024 0.0390625 2.76707 0L4.41915 3.35156L3.58725 4.3125C3.67318 4.45312 3.90751 4.75781 4.29027 5.22656C4.67302 5.69531 5.05577 6.125 5.43853 6.51562C5.82128 6.89844 6.21965 7.26562 6.63365 7.61719C7.05546 7.96094 7.33667 8.17188 7.47727 8.25L8.66068 7.37109C8.66068 7.37109 8.78566 7.42578 9.03562 7.53516C9.28558 7.64453 9.5785 7.77344 9.91439 7.92188C10.2503 8.0625 10.5862 8.21094 10.922 8.36719C11.2579 8.52344 11.5118 8.64453 11.6836 8.73047C11.6836 8.73047 11.7149 8.75781 11.7774 8.8125C11.8399 8.86719 11.8945 8.96484 11.9414 9.10547C11.9805 9.24609 12 9.34766 12 9.41016C12 9.46484 12 9.49219 12 9.49219C11.8594 10.0938 11.5665 10.5625 11.1212 10.8984C10.6838 11.2344 10.2034 11.5195 9.68005 11.7539C9.68005 11.7539 9.62928 11.7734 9.52773 11.8125C9.42618 11.8516 9.29339 11.8906 9.12935 11.9297C8.95751 11.9766 8.82472 12 8.73098 12C8.63724 12 8.59038 12 8.59038 12Z" />
</svg>

<!-- Generated by IcoMoon.io -->
<svg version="1.1" xmlns="http://www.w3.org/2000/svg" width="12" height="12" viewBox="0 0 12 12">
<title>call</title>
<path d="M0.928 2.367c0.016 0.227 0.086 0.531 0.211 0.914s0.305 0.808 0.539 1.277c0.242 0.469 0.539 0.957 0.89 1.465s0.762 0.996 1.23 1.465c0.461 0.469 0.933 0.91 1.418 1.324 0.476 0.414 0.922 0.777 1.336 1.090 0.422 0.312 0.793 0.562 1.113 0.75s0.551 0.293 0.691 0.316c0.281 0.031 0.469 0.043 0.562 0.035 0.102-0.008 0.152-0.012 0.152-0.012 0.039 0.008 0.156-0.031 0.352-0.117 0.187-0.086 0.394-0.199 0.621-0.34 0.227-0.148 0.441-0.32 0.644-0.515s0.336-0.398 0.398-0.609c-0.25-0.117-0.621-0.305-1.113-0.562-0.484-0.258-0.851-0.445-1.101-0.562l-1.312 1.008-1.312-0.926c-0.133-0.070-0.406-0.289-0.82-0.656-0.406-0.367-0.777-0.738-1.113-1.113-0.344-0.375-0.664-0.762-0.961-1.16-0.289-0.398-0.469-0.664-0.539-0.797l-0.258-0.516 0.75-0.949-0.984-2.144c-0.359 0.133-0.687 0.32-0.984 0.562-0.289 0.242-0.426 0.5-0.41 0.773zM8.59 11.998c-0.305 0-0.672-0.109-1.101-0.328-0.422-0.227-0.879-0.52-1.371-0.879-0.492-0.367-1-0.781-1.523-1.242-0.516-0.461-1.023-0.93-1.523-1.406-0.492-0.469-0.926-0.973-1.301-1.511-0.375-0.531-0.691-1.055-0.949-1.57-0.25-0.516-0.445-1.004-0.586-1.465-0.133-0.453-0.211-0.836-0.234-1.148-0.016-0.281 0.066-0.559 0.246-0.832 0.172-0.281 0.394-0.531 0.668-0.75 0.281-0.227 0.586-0.418 0.914-0.574s0.641-0.254 0.937-0.293l1.652 3.351-0.832 0.961c0.086 0.141 0.32 0.445 0.703 0.914s0.766 0.898 1.148 1.289c0.383 0.383 0.781 0.75 1.195 1.101 0.422 0.344 0.703 0.555 0.844 0.633l1.183-0.879c0 0 0.125 0.055 0.375 0.164s0.543 0.238 0.879 0.387c0.336 0.141 0.672 0.289 1.008 0.445s0.59 0.277 0.762 0.363c0 0 0.031 0.027 0.094 0.082s0.117 0.152 0.164 0.293c0.039 0.141 0.059 0.242 0.059 0.305 0 0.055 0 0.082 0 0.082-0.141 0.601-0.433 1.070-0.879 1.406-0.437 0.336-0.918 0.621-1.441 0.855 0 0-0.051 0.019-0.152 0.059s-0.234 0.078-0.398 0.117c-0.172 0.047-0.305 0.070-0.398 0.070s-0.141 0-0.141 0z"></path>
</svg>
